modules/coreui-icons-free/icons/screen-smartphone.svg

<!-- Generated by IcoMoon.io -->
<svg version="1.1" xmlns="http://www.w3.org/2000/svg" width="24" height="24" viewBox="0 0 24 24">
<title>screen-smartphone</title>
<path d="M18 0.75h-11.625c-0.828 0.001-1.499 0.672-1.5 1.5v19.5c0.001 0.828 0.672 1.499 1.5 1.5h11.625c0.828-0.001 1.499-0.672 1.5-1.5v-19.5c-0.001-0.828-0.672-1.499-1.5-1.5h-0zM18 21.75h-11.625v-19.5h11.625l0.001 19.5z"></path>
<path d="M10.125 3.75h4.5v1.5h-4.5v-1.5z"></path>
<path d="M11.625 18.375h1.5v1.5h-1.5v-1.5z"></path>
</svg>

<svg xmlns="http://www.w3.org/2000/svg" width="24" height="24" viewBox="0 0 24 24"><path d="M18 .75H6.375a1.502 1.502 0 00-1.5 1.5v19.5a1.502 1.502 0 001.5 1.5H18a1.502 1.502 0 001.5-1.5V2.25A1.502 1.502 0 0018 .75zm0 21H6.375V2.25H18l.001 19.5z"/><path d="M10.125 3.75h4.5v1.5h-4.5v-1.5zM11.625 18.375h1.5v1.5h-1.5v-1.5z"/></svg>
